public/avatar/hat/91.svg

<svg xmlns:xlink="http://www.w3.org/1999/xlink" height="92.9" width="100.7" xmlns="http://www.w3.org/2000/svg"><g transform="translate(38.65 49.75)"><use height="5.2" transform="matrix(.9524 0 0 .9615 -10.626 -13.65)" width="5.25" xlink:href="#a"/><use height="5.2" transform="matrix(.8381 0 0 .8462 -15.38 -10.2)" width="5.25" xlink:href="#a"/><use height="5.2" transform="matrix(.8381 0 0 .8462 11.47 -11)" width="5.25" xlink:href="#a"/><use height="5.2" transform="matrix(.9524 0 0 .9615 5.724 -13.65)" width="5.25" xlink:href="#a"/><use height="5.2" transform="translate(-2.6 -15.95)" width="5.25" xlink:href="#a"/><use height="21.5" transform="translate(-13.3 -14.55)" width="27.5" xlink:href="#b"/><use height="4.25" transform="translate(-2.1 -15.5)" width="4.25" xlink:href="#c"/><use height="4.25" transform="translate(6.324 -13.073) scale(.9412)" width="4.25" xlink:href="#c"/><use height="4.25" transform="matrix(.8328 0 0 .8313 12.001 -10.487)" width="4.25" xlink:href="#c"/><use height="4.25" transform="translate(-10.027 -13.073) scale(.9412)" width="4.25" xlink:href="#c"/><use height="4.25" transform="matrix(.8328 0 0 .8313 -14.949 -9.787)" width="4.25" xlink:href="#c"/></g><defs><use height="5.2" width="5.25" xlink:href="#d" id="a"/><use height="4.25" width="4.25" xlink:href="#e" id="c"/><g id="b" fill-rule="evenodd"><path d="m1.6-12.55 2.8 8.2 2.95-6 1-.55.75.05.55 7.1 3.1-4.8 1.35-.05q.25 0-.25.8-.4 2.85-1.2 6.05l-1.4 5q-.6 1.5-2.1 2.5l-20.8-2.85q-.2-2.5-.7-4.75l-.8-4.15v-1.35l.5-.05h.3l2.7 4.15.75-7.35 1.4-.15.6.5 2.9 5.9 2.85-8.6 1.8-.5q.95 0 .95.9" fill="#3b2d00" transform="translate(13.3 14.55)"/><path d="M11.6 0q.35.6-.1 2.6-.45 1.9-.95 2.3-1.75 1.65-5.1 1.95h-5.7l-4.8.1q-2.8-.1-4.5-1.2-1.6-1.15-2-2.25-.8-2.5 1.75-.55 1.7 1.4 2.75 1.7l8.1.75q3.45 0 4.6-.6l2.5-1.55Q8.55 3 9.95-.1l1.65.1" fill="#3b2d00" transform="translate(13.3 14.55)"/><path d="m13.7-9.05-1.85 7.5Q11.4.9 10.6 3.15 9.5 6.2.15 6.25q-10.6.1-11.25-3.65h-.05L-13.3-8.25l4.05 7.5L-8.1-11l4 9L0-14.55 4.35-2l3.85-9.1 1.1 9.9 4.4-7.85" fill="#d4a200" transform="translate(13.3 14.55)"/><path d="m-7.85-8.9.1-.5.5-.15.95 1.95L-5.05-4q.75 2.7.1 2.75-1.65.2-1.75-1.65.2-2.25.05-2.95-.4-2.4-1.2-3.05M2.4-4.05l-2-3.8Q-.9-10.9.6-11.5q.7-.3.95.55l.4 1.4 1.55 4.7.35 1.7q.25.75 1.15.2l2.7-1.4Q7.4-3.1 5.75-1l.65 2.25q0 1.25-.35 2-.9 1.65-.9 2.25-3.45.8-3.3-.85l.9-2.3.35-1.8q.35-2.05-.7-4.6" fill="#b58200" transform="translate(13.3 14.55)"/><path d="M13.15-6.95 12-.9q-1.1 4.85-2.5 5.65-1.5.85-3.1 1l-2.3.1 3.65-15.1.5.05L9.4-1.25l3.35-6.1.7-.35-.3.75" fill="#b58200" transform="translate(13.3 14.55)"/><path d="m1.35-.15 2.45.5L2.1 2.2l.3 2.5L.15 3.65l-2.3 1.05.3-2.5-1.7-1.8 2.45-.5L.1-2.3 1.35-.15" fill="#544000" transform="translate(13.3 14.55)"/><path d="M.1-2.3 1.45-.1l2.2.45-3.75.7L-3.55.4l2.45-.45L.1-2.3" fill="#6b5200" transform="translate(13.3 14.55)"/><path d="m.15 2.95-1.55.7.15-1.7L-2.4.7-.7.35l.8-1.5.85 1.5 1.7.35L1.5 1.95l.2 1.7-1.55-.7" fill="#d4a200" transform="translate(13.3 14.55)"/><path d="m6.95.4.6-1.6.6 1.35 1.2.05-.85 1.45.2 1.65-1.1-.45-1.1 1 .1-1.75-.8-1.05L6.95.4" fill="#544000" transform="translate(13.3 14.55)"/><path d="m7.2.75.35-1L7.9.6l.75.05-.5.85.1 1.05-.7-.3-.65.6L7 1.8l-.55-.65.75-.4" fill="#d4a200" transform="translate(13.3 14.55)"/><path d="m-6.45.5 1.2.6-.8 1.1.15 1.7-1.1-.95-1.1.5.1-1.7L-8.8.3l1.2-.05.55-1.35.6 1.6" fill="#544000" transform="translate(13.3 14.55)"/><path d="m-6.65.85.7.35-.5.7.1 1.05-.65-.6-.7.3.1-1.05-.5-.85.7-.05.35-.85.4 1" fill="#d4a200" transform="translate(13.3 14.55)"/><path d="M1.1 3.35.6 3.1l-1.25-.25q-.65-.2-.15-1L0 1.1Q.3.15.65-.15q.5.9 1.4 1.1-.45.65-.55 2.4h-.4" fill="#b58200" transform="translate(13.3 14.55)"/><path d="M-.6 1.25q-.9.35-1.5-.35Q0 .9-.1-.55l.4.6q.2.8-.9 1.2m-6.45-.9.1.35q.6.3.15.9l-.75.8-.05-.85L-8 .9q.7.1.95-.55M-4.1-2l3.05-9.35.05 1.8-1.6 9L-4-.9-4.1-2m-4.15-6.9.55 2.45-.05 4.75L-8-.6l-1.25-.15 1-8.15M-11.3 1.8l-1.55-8.1L-10.7.3l.5 2.75 1.7 2.15q-1.45-.35-2.05-1.35-.75-1.25-.75-2.05" fill="#fff6de" transform="translate(13.3 14.55)"/></g><g id="e" fill-rule="evenodd"><path d="m1.5.5.05-.5q0-1.55-1.55-1.55l-.45.1-.35-.1q-.7 0-.7.7l.05.35-.05.5.2.75-.15.3q0 .65 1.4.65 1.45 0 1.45-.65v-.1L1.5.5M.05 2.1Q-2.1 2.2-2.1 0-2.2-2.15 0-2.15q2.15 0 2.15 2.15 0 2.1-2.1 2.1" fill="#b50000" transform="translate(2.1 2.15)"/><path d="M.6-.65q-.4 0-.4.4t.4.4q.5 0 .4-.4 0-.4-.4-.4m-1.05-.8.45-.1q1.55 0 1.55 1.55L1.5.5 1.4.2l-.15.5-1.3-.25q-.95 0-1.25.3L-1.5 0l.05-.5q.15.35.65.35.7 0 .7-.7 0-.5-.35-.6" fill="red" transform="translate(2.1 2.15)"/><path d="M1.4.95v.1q0 .65-1.45.65-1.4 0-1.4-.65l.15-.3q.3-.3 1.25-.3l1.3.25-.3.3-.95.5q.95.25 1.3-.35l.1-.2" fill="#870000" transform="translate(2.1 2.15)"/><path d="M.6-.65q.4 0 .4.4.1.4-.4.4-.4 0-.4-.4t.4-.4m-2.05.15-.05-.35q0-.7.7-.7l.35.1q.35.1.35.6 0 .7-.7.7-.5 0-.65-.35" fill="#fff" transform="translate(2.1 2.15)"/><path d="m1.5.5-.1.45-.1.2q-.35.6-1.3.35L.95 1l.3-.3.15-.5.1.3" fill="#ff9191" transform="translate(2.1 2.15)"/></g><path d="M.05 2.6Q-2.6 2.7-2.6 0q0-2.5 2.6-2.6 2.65 0 2.65 2.6T.05 2.6" fill="#400000" fill-rule="evenodd" transform="translate(2.6 2.6)" id="d"/></defs></svg>

<?xml version="1.0" encoding="UTF-8" standalone="no"?>
<svg xmlns:xlink="http://www.w3.org/1999/xlink" height="92.9px" width="100.7px" xmlns="http://www.w3.org/2000/svg">
  <g transform="matrix(1.0, 0.0, 0.0, 1.0, 38.65, 49.75)">
    <use height="5.2" transform="matrix(0.9524, 0.0, 0.0, 0.9615, -10.6262, -13.65)" width="5.25" xlink:href="#sprite0"/>
    <use height="5.2" transform="matrix(0.8381, 0.0, 0.0, 0.8462, -15.3791, -10.2)" width="5.25" xlink:href="#sprite0"/>
    <use height="5.2" transform="matrix(0.8381, 0.0, 0.0, 0.8462, 11.4709, -11.0)" width="5.25" xlink:href="#sprite0"/>
    <use height="5.2" transform="matrix(0.9524, 0.0, 0.0, 0.9615, 5.7238, -13.65)" width="5.25" xlink:href="#sprite0"/>
    <use height="5.2" transform="matrix(1.0, 0.0, 0.0, 1.0, -2.6, -15.95)" width="5.25" xlink:href="#sprite0"/>
    <use height="21.5" transform="matrix(1.0, 0.0, 0.0, 1.0, -13.3, -14.55)" width="27.5" xlink:href="#shape1"/>
    <use height="4.25" transform="matrix(1.0, 0.0, 0.0, 1.0, -2.1, -15.5)" width="4.25" xlink:href="#sprite1"/>
    <use height="4.25" transform="matrix(0.9412, 0.0, 0.0, 0.9412, 6.3235, -13.0735)" width="4.25" xlink:href="#sprite1"/>
    <use height="4.25" transform="matrix(0.8328, 0.0, 0.0, 0.8313, 12.0011, -10.4873)" width="4.25" xlink:href="#sprite1"/>
    <use height="4.25" transform="matrix(0.9412, 0.0, 0.0, 0.9412, -10.0265, -13.0735)" width="4.25" xlink:href="#sprite1"/>
    <use height="4.25" transform="matrix(0.8328, 0.0, 0.0, 0.8313, -14.9489, -9.7873)" width="4.25" xlink:href="#sprite1"/>
  </g>
  <defs>
    <g id="sprite0" transform="matrix(1.0, 0.0, 0.0, 1.0, 2.6, 2.6)">
      <use height="5.2" transform="matrix(1.0, 0.0, 0.0, 1.0, -2.6, -2.6)" width="5.25" xlink:href="#shape0"/>
    </g>
    <g id="shape0" transform="matrix(1.0, 0.0, 0.0, 1.0, 2.6, 2.6)">
      <path d="M0.05 2.6 Q-2.6 2.7 -2.6 0.0 -2.6 -2.5 0.0 -2.6 2.65 -2.6 2.65 0.0 2.65 2.6 0.05 2.6" fill="#400000" fill-rule="evenodd" stroke="none"/>
    </g>
    <g id="shape1" transform="matrix(1.0, 0.0, 0.0, 1.0, 13.3, 14.55)">
      <path d="M1.6 -12.55 L4.4 -4.35 7.35 -10.35 8.35 -10.9 9.1 -10.85 9.65 -3.75 12.75 -8.55 14.1 -8.6 Q14.35 -8.6 13.85 -7.8 13.45 -4.95 12.65 -1.75 L11.25 3.25 Q10.65 4.75 9.15 5.75 L-11.65 2.9 Q-11.85 0.4 -12.35 -1.85 L-13.15 -6.0 -13.15 -7.35 -12.65 -7.4 -12.35 -7.4 -9.65 -3.25 -8.9 -10.6 -7.5 -10.75 -6.9 -10.25 -4.0 -4.35 -1.15 -12.95 0.65 -13.45 Q1.6 -13.45 1.6 -12.55" fill="#3b2d00" fill-rule="evenodd" stroke="none"/>
      <path d="M11.6 0.0 Q11.95 0.6 11.5 2.6 11.05 4.5 10.55 4.9 8.8 6.55 5.45 6.85 L-0.25 6.85 -5.05 6.95 Q-7.85 6.85 -9.55 5.75 -11.15 4.6 -11.55 3.5 -12.35 1.0 -9.8 2.95 -8.1 4.35 -7.05 4.65 L1.05 5.4 Q4.5 5.4 5.65 4.8 L8.15 3.25 Q8.55 3.0 9.95 -0.1 L11.6 0.0" fill="#3b2d00" fill-rule="evenodd" stroke="none"/>
      <path d="M13.7 -9.05 L11.85 -1.55 Q11.4 0.9 10.6 3.15 9.5 6.2 0.15 6.25 -10.45 6.35 -11.1 2.6 L-11.15 2.6 -13.3 -8.25 -9.25 -0.75 -8.1 -11.0 -4.1 -2.0 0.0 -14.55 4.35 -2.0 8.2 -11.1 9.3 -1.2 13.7 -9.05" fill="#d4a200" fill-rule="evenodd" stroke="none"/>
      <path d="M-7.85 -8.9 L-7.75 -9.4 -7.25 -9.55 -6.3 -7.6 -5.05 -4.0 Q-4.3 -1.3 -4.95 -1.25 -6.6 -1.05 -6.7 -2.9 -6.5 -5.15 -6.65 -5.85 -7.05 -8.25 -7.85 -8.9" fill="#b58200" fill-rule="evenodd" stroke="none"/>
      <path d="M2.4 -4.05 L0.4 -7.85 Q-0.9 -10.9 0.6 -11.5 1.3 -11.8 1.55 -10.95 L1.95 -9.55 3.5 -4.85 3.85 -3.15 Q4.1 -2.4 5.0 -2.95 L7.7 -4.35 Q7.4 -3.1 5.75 -1.0 L6.4 1.25 Q6.4 2.5 6.05 3.25 5.15 4.9 5.15 5.5 1.7 6.3 1.85 4.65 L2.75 2.35 3.1 0.55 Q3.45 -1.5 2.4 -4.05" fill="#b58200" fill-rule="evenodd" stroke="none"/>
      <path d="M13.15 -6.95 L12.0 -0.9 Q10.9 3.95 9.5 4.75 8.0 5.6 6.4 5.75 L4.1 5.85 7.75 -9.25 8.25 -9.2 9.4 -1.25 12.75 -7.35 13.45 -7.7 13.15 -6.95" fill="#b58200" fill-rule="evenodd" stroke="none"/>
      <path d="M1.35 -0.15 L3.8 0.35 2.1 2.2 2.4 4.7 0.15 3.65 -2.15 4.7 -1.85 2.2 -3.55 0.4 -1.1 -0.1 0.1 -2.3 1.35 -0.15" fill="#544000" fill-rule="evenodd" stroke="none"/>
      <path d="M0.1 -2.3 L1.45 -0.1 3.65 0.35 -0.1 1.05 -3.55 0.4 -1.1 -0.05 0.1 -2.3" fill="#6b5200" fill-rule="evenodd" stroke="none"/>
      <path d="M0.15 2.95 L-1.4 3.65 -1.25 1.95 -2.4 0.7 -0.7 0.35 0.1 -1.15 0.95 0.35 2.65 0.7 1.5 1.95 1.7 3.65 0.15 2.95" fill="#d4a200" fill-rule="evenodd" stroke="none"/>
      <path d="M6.95 0.4 L7.55 -1.2 8.15 0.15 9.35 0.2 8.5 1.65 8.7 3.3 7.6 2.85 6.5 3.85 6.6 2.1 5.8 1.05 6.95 0.4" fill="#544000" fill-rule="evenodd" stroke="none"/>
      <path d="M7.2 0.75 L7.55 -0.25 7.9 0.6 8.65 0.65 8.15 1.5 8.25 2.55 7.55 2.25 6.9 2.85 7.0 1.8 6.45 1.15 7.2 0.75" fill="#d4a200" fill-rule="evenodd" stroke="none"/>
      <path d="M-6.45 0.5 L-5.25 1.1 -6.05 2.2 -5.9 3.9 -7.0 2.95 -8.1 3.45 -8.0 1.75 -8.8 0.3 -7.6 0.25 -7.05 -1.1 -6.45 0.5" fill="#544000" fill-rule="evenodd" stroke="none"/>
      <path d="M-6.65 0.85 L-5.95 1.2 -6.45 1.9 -6.35 2.95 -7.0 2.35 -7.7 2.65 -7.6 1.6 -8.1 0.75 -7.4 0.7 -7.05 -0.15 -6.65 0.85" fill="#d4a200" fill-rule="evenodd" stroke="none"/>
      <path d="M1.1 3.35 L0.6 3.1 -0.65 2.85 Q-1.3 2.65 -0.8 1.85 L0.0 1.1 Q0.3 0.15 0.65 -0.15 1.15 0.75 2.05 0.95 1.6 1.6 1.5 3.35 L1.1 3.35" fill="#b58200" fill-rule="evenodd" stroke="none"/>
      <path d="M-0.6 1.25 Q-1.5 1.6 -2.1 0.9 0.0 0.9 -0.1 -0.55 L0.3 0.05 Q0.5 0.85 -0.6 1.25" fill="#fff6de" fill-rule="evenodd" stroke="none"/>
      <path d="M-7.05 0.35 L-6.95 0.7 Q-6.35 1.0 -6.8 1.6 L-7.55 2.4 -7.6 1.55 -8.0 0.9 Q-7.3 1.0 -7.05 0.35" fill="#fff6de" fill-rule="evenodd" stroke="none"/>
      <path d="M-4.1 -2.0 L-1.05 -11.35 -1.0 -9.55 -2.6 -0.55 -4.0 -0.9 -4.1 -2.0" fill="#fff6de" fill-rule="evenodd" stroke="none"/>
      <path d="M-8.25 -8.9 L-7.7 -6.45 -7.75 -1.7 -8.0 -0.6 -9.25 -0.75 -8.25 -8.9" fill="#fff6de" fill-rule="evenodd" stroke="none"/>
      <path d="M-11.3 1.8 L-12.85 -6.3 -10.7 0.3 -10.2 3.05 -8.5 5.2 Q-9.95 4.85 -10.55 3.85 -11.3 2.6 -11.3 1.8" fill="#fff6de" fill-rule="evenodd" stroke="none"/>
    </g>
    <g id="sprite1" transform="matrix(1.0, 0.0, 0.0, 1.0, 2.1, 2.15)">
      <use height="4.25" transform="matrix(1.0, 0.0, 0.0, 1.0, -2.1, -2.15)" width="4.25" xlink:href="#shape2"/>
    </g>
    <g id="shape2" transform="matrix(1.0, 0.0, 0.0, 1.0, 2.1, 2.15)">
      <path d="M1.5 0.5 L1.55 0.0 Q1.55 -1.55 0.0 -1.55 L-0.45 -1.45 -0.8 -1.55 Q-1.5 -1.55 -1.5 -0.85 L-1.45 -0.5 -1.5 0.0 -1.3 0.75 -1.45 1.05 Q-1.45 1.7 -0.05 1.7 1.4 1.7 1.4 1.05 L1.4 0.95 1.5 0.5 M0.05 2.1 Q-2.1 2.2 -2.1 0.0 -2.2 -2.15 0.0 -2.15 2.15 -2.15 2.15 0.0 2.15 2.1 0.05 2.1" fill="#b50000" fill-rule="evenodd" stroke="none"/>
      <path d="M0.6 -0.65 Q0.2 -0.65 0.2 -0.25 0.2 0.15 0.6 0.15 1.1 0.15 1.0 -0.25 1.0 -0.65 0.6 -0.65 M-0.45 -1.45 L0.0 -1.55 Q1.55 -1.55 1.55 0.0 L1.5 0.5 1.4 0.2 1.25 0.7 -0.05 0.45 Q-1.0 0.45 -1.3 0.75 L-1.5 0.0 -1.45 -0.5 Q-1.3 -0.15 -0.8 -0.15 -0.1 -0.15 -0.1 -0.85 -0.1 -1.35 -0.45 -1.45" fill="#ff0000" fill-rule="evenodd" stroke="none"/>
      <path d="M1.4 0.95 L1.4 1.05 Q1.4 1.7 -0.05 1.7 -1.45 1.7 -1.45 1.05 L-1.3 0.75 Q-1.0 0.45 -0.05 0.45 L1.25 0.7 0.95 1.0 0.0 1.5 Q0.95 1.75 1.3 1.15 L1.4 0.95" fill="#870000" fill-rule="evenodd" stroke="none"/>
      <path d="M0.6 -0.65 Q1.0 -0.65 1.0 -0.25 1.1 0.15 0.6 0.15 0.2 0.15 0.2 -0.25 0.2 -0.65 0.6 -0.65 M-1.45 -0.5 L-1.5 -0.85 Q-1.5 -1.55 -0.8 -1.55 L-0.45 -1.45 Q-0.1 -1.35 -0.1 -0.85 -0.1 -0.15 -0.8 -0.15 -1.3 -0.15 -1.45 -0.5" fill="#ffffff" fill-rule="evenodd" stroke="none"/>
      <path d="M1.5 0.5 L1.4 0.95 1.3 1.15 Q0.95 1.75 0.0 1.5 L0.95 1.0 1.25 0.7 1.4 0.2 1.5 0.5" fill="#ff9191" fill-rule="evenodd" stroke="none"/>
    </g>
  </defs>
</svg>
